static/icons/sittuyin.svg

<svg height="50" viewBox="0 0 13.229166 13.229167" width="50" xmlns="http://www.w3.org/2000/svg"><path d="m25.015625 2.0898438c-1.726915.0226768-3.503015.5719745-5.349609 1.8320312l-1.556641 3.7265625c4.645194 1.5614362 9.311841 2.3326821 14.056641.109375l-1.447266-3.9960937c-1.852955-1.0503689-3.745953-1.6984074-5.703125-1.671875zm-7.455078 6.6738281c-.349569.703748-.524069 1.4961351.421875 2.8476561-.007559.039685-.013925.079456-.021484.119141 4.610044 1.194671 9.332036 1.109077 14.142578-.001953-.007937-.026457-.015501-.052047-.023438-.078125.379121-1.149317.833485-1.9543442.585938-2.7363285-5.324104 2.3757355-10.282641 1.6846835-15.105469-.1503906zm14.683594 3.4902341c-4.930424 1.052485-9.754146 1.28013-14.382813.017578-.42192 2.346482-.631916 4.707526 1.082031 7.1875-3.395856.787692-4.434816.853375-5.845703 1.841797-.365953 3.719958-.878435 7.539026-1.207031 11.134766 1.908315-.312344 3.816294-.493484 5.724609-.037109.416428-2.437996 1.12707-4.876451 1.732422-7.314454.171931-1.56102-.902247-1.719897-1.460937-2.458984l.691406-.958984c.719399.942122 1.828394 1.56037 2 2.958984-.62535 2.066949-1.345174 4.040114-1.814453 6.263672.201807.205679 3.670361 3.710399 5.984375 3.732422 2.480009.023765 6.282013-3.68195 6.474609-3.871094-.469151-2.168244-1.176456-4.100172-1.789062-6.125.17159-1.398614 1.278648-2.016862 1.998047-2.958984l.691406.960937c-.558686.739087-1.630927.897961-1.458985 2.458985.658185 2.650769 1.443305 5.302109 1.835938 7.953124 1.944749-.465513 3.889235-.27041 5.833984.052735-.286011-3.857979-.76756-8.025887-1.126953-11.310547-.716538-.798236-3.806197-1.464182-6.328125-2.162109 1.215143-1.990374 2.025791-4.567688 1.365235-7.365235zm-12.330079 1.91211 4.158204.679687c.070677 1.315049.004525 3.719522.951172 3.667969.813611-.044221.830792-1.677662.978515-3.560547l4.048828-.705078.070313.8125-3.322266.457031v.396484l3.251953-.0625.027344.705079-3.341797.027343c-.121096 1.584265-.535457 2.812793-1.740234 2.826172-.842873.007559-1.46518-.79229-1.65625-2.935547l-3.50586-.02539.080078-.789063 3.425782.136719.02539-.353516-3.585937-.435547zm-1.34375 17.736328c-.160538.960613-.270107 1.970254-.298828 3.0625-.308598 1.806387.335319 3.611619.806641 5.417968.720686-1.42473 1.086049-5.002874 2.179687-5.011718l1.484376-.025391c-1.879756-1.027371-3.736975-2.972682-4.171876-3.443359zm12.890626.117187c-.013208.012929-2.174488 2.111336-4.355469 3.25l1.753906-.03125c.963142-.053291 1.370738 3.645911 2.072266 5.144531.471303-1.806349 1.115231-3.611581.80664-5.417968-.02753-1.047071-.127894-2.020175-.277343-2.945313zm-16.16211 1.080078c-1.190853-.031213-2.363742.145959-3.503906.357422-.330056 4.054874-.365285 7.762859.421875 10.591797-.954546.990236-1.836741 1.984918-.720703 3.123047 8.748639.847257 17.710411.983242 26.912109.320313 1.36506-1.281526.158718-2.562228-.640625-3.84375.9022-1.286603.931328-5.129812.642578-9.554688-1.830705-.338034-3.84468-.584824-5.78125-.029297.010109.095004.024307.190154.033203.285156.287585 1.989279.237061 4.262079-.5 6.763672.552885 1.311912 1.458439 1.652264 2.613282 1.960938l.384765.382812.03711.884766c-.181267-.058205-.365886-.107431-.552735-.154297v.007812l-19.228515-.015624.001953-.007813c-.204133.050646-.407705.104851-.605469.167969l.037109-.884766.384766-.384766c1.154842-.308787 2.060397-.647072 2.613281-1.958984-.737045-2.501594-.785616-4.776346-.498047-6.765625.028998-.30965.068068-.618085.109375-.927734-.725171-.205276-1.445644-.299631-2.160156-.31836zm8.972656 3.056641c-1.041387.014882-1.777343.054688-1.777343.054688-1.984575.069921-2.148101 5.300746-4.337891 6.785156-.242306.256252-.519725.444395-.816406.591797l14.632812-.082032c-1.410561-.725316-2.541454-7.119841-4.085937-7.25-1.226142-.10337-2.573848-.114491-3.615235-.099609zm8.154297 7.292969c.001026.018178.005961.038742.003907.052734h.078124c-.028079-.015905-.054379-.03595-.082031-.052734z" fill="#d4aa00" transform="scale(.26458333)"/></svg>

<?xml version="1.0" encoding="UTF-8" standalone="no"?>
<!-- Created with Inkscape (http://www.inkscape.org/) -->

<svg
   xmlns:dc="http://purl.org/dc/elements/1.1/"
   xmlns:cc="http://creativecommons.org/ns#"
   xmlns:rdf="http://www.w3.org/1999/02/22-rdf-syntax-ns#"
   xmlns:svg="http://www.w3.org/2000/svg"
   xmlns="http://www.w3.org/2000/svg"
   xmlns:sodipodi="http://sodipodi.sourceforge.net/DTD/sodipodi-0.dtd"
   xmlns:inkscape="http://www.inkscape.org/namespaces/inkscape"
   width="50"
   height="50"
   viewBox="0 0 13.229166 13.229167"
   version="1.1"
   id="svg1579"
   sodipodi:docname="Sittuyin.svg"
   inkscape:version="0.92.4 (5da689c313, 2019-01-14)">
  <defs
     id="defs1573">
    <inkscape:path-effect
       effect="mirror_symmetry"
       start_point="-15.691712,-45.362002"
       end_point="-15.691712,4.437998"
       center_point="-15.691712,-20.462002"
       id="path-effect7365"
       is_visible="true"
       mode="free"
       discard_orig_path="false"
       fuse_paths="true"
       oposite_fuse="false" />
    <inkscape:path-effect
       effect="mirror_symmetry"
       start_point="275.14301,98.12006"
       end_point="275.14301,350.07326"
       center_point="275.14301,224.09666"
       id="path-effect4547-0"
       is_visible="true"
       mode="free"
       discard_orig_path="false"
       fuse_paths="true"
       oposite_fuse="false" />
    <inkscape:path-effect
       effect="mirror_symmetry"
       start_point="274.67636,240.21573"
       end_point="274.67636,418.88419"
       center_point="274.67636,329.54996"
       id="path-effect4551-7"
       is_visible="true"
       mode="free"
       discard_orig_path="false"
       fuse_paths="false"
       oposite_fuse="false" />
    <inkscape:path-effect
       effect="mirror_symmetry"
       start_point="273.50283,331.92091"
       end_point="273.50283,477.30227"
       center_point="273.50283,404.61159"
       id="path-effect4557-0"
       is_visible="true"
       mode="free"
       discard_orig_path="false"
       fuse_paths="false"
       oposite_fuse="false" />
    <inkscape:path-effect
       effect="mirror_symmetry"
       start_point="315.71788,90.192596"
       end_point="315.71788,96.192596"
       center_point="315.71788,93.192596"
       id="path-effect4669"
       is_visible="true"
       mode="free"
       discard_orig_path="false"
       fuse_paths="false"
       oposite_fuse="false" />
    <inkscape:path-effect
       oposite_fuse="false"
       fuse_paths="false"
       discard_orig_path="false"
       mode="free"
       is_visible="true"
       id="path-effect4802"
       center_point="316.91112,93.060013"
       end_point="316.91112,96.060013"
       start_point="316.91112,90.060013"
       effect="mirror_symmetry" />
  </defs>
  <sodipodi:namedview
     id="base"
     pagecolor="#ffffff"
     bordercolor="#666666"
     borderopacity="1.0"
     inkscape:pageopacity="0.0"
     inkscape:pageshadow="2"
     inkscape:zoom="5.6568542"
     inkscape:cx="-34.883873"
     inkscape:cy="39.257353"
     inkscape:document-units="px"
     inkscape:current-layer="layer1"
     showgrid="false"
     units="px"
     showguides="true"
     inkscape:window-width="1920"
     inkscape:window-height="1017"
     inkscape:window-x="1912"
     inkscape:window-y="-8"
     inkscape:window-maximized="1" />
  <metadata
     id="metadata1576">
    <rdf:RDF>
      <cc:Work
         rdf:about="">
        <dc:format>image/svg+xml</dc:format>
        <dc:type
           rdf:resource="http://purl.org/dc/dcmitype/StillImage" />
        <dc:title></dc:title>
      </cc:Work>
    </rdf:RDF>
  </metadata>
  <g
     inkscape:label="Layer 1"
     inkscape:groupmode="layer"
     id="layer1"
     transform="translate(0,-283.77082)">
    <path
       style="fill:#d4aa00;fill-opacity:1;stroke:none;stroke-width:1.2175144;stroke-linecap:butt;stroke-linejoin:miter;stroke-miterlimit:4;stroke-dasharray:none;stroke-opacity:1"
       d="M 25.015625 2.0898438 C 23.28871 2.1125206 21.51261 2.6618183 19.666016 3.921875 L 18.109375 7.6484375 C 22.754569 9.2098737 27.421216 9.9811196 32.166016 7.7578125 L 30.71875 3.7617188 C 28.865795 2.7113499 26.972797 2.0633114 25.015625 2.0898438 z M 17.560547 8.7636719 C 17.210978 9.4674199 17.036478 10.259807 17.982422 11.611328 C 17.974863 11.651013 17.968497 11.690784 17.960938 11.730469 C 22.570982 12.92514 27.292974 12.839546 32.103516 11.728516 C 32.095579 11.702059 32.088015 11.676469 32.080078 11.650391 C 32.459199 10.501074 32.913563 9.6960468 32.666016 8.9140625 C 27.341912 11.289798 22.383375 10.598746 17.560547 8.7636719 z M 32.244141 12.253906 C 27.313717 13.306391 22.489995 13.534036 17.861328 12.271484 C 17.439408 14.617966 17.229412 16.97901 18.943359 19.458984 C 15.547503 20.246676 14.508543 20.312359 13.097656 21.300781 C 12.731703 25.020739 12.219221 28.839807 11.890625 32.435547 C 13.79894 32.123203 15.706919 31.942063 17.615234 32.398438 C 18.031662 29.960442 18.742304 27.521987 19.347656 25.083984 C 19.519587 23.522964 18.445409 23.364087 17.886719 22.625 L 18.578125 21.666016 C 19.297524 22.608138 20.406519 23.226386 20.578125 24.625 C 19.952775 26.691949 19.232951 28.665114 18.763672 30.888672 C 18.965479 31.094351 22.434033 34.599071 24.748047 34.621094 C 27.228056 34.644859 31.03006 30.939144 31.222656 30.75 C 30.753505 28.581756 30.0462 26.649828 29.433594 24.625 C 29.605184 23.226386 30.712242 22.608138 31.431641 21.666016 L 32.123047 22.626953 C 31.564361 23.36604 30.49212 23.524914 30.664062 25.085938 C 31.322247 27.736707 32.107367 30.388047 32.5 33.039062 C 34.444749 32.573549 36.389235 32.768652 38.333984 33.091797 C 38.047973 29.233818 37.566424 25.06591 37.207031 21.78125 C 36.490493 20.983014 33.400834 20.317068 30.878906 19.619141 C 32.094049 17.628767 32.904697 15.051453 32.244141 12.253906 z M 19.914062 14.166016 L 24.072266 14.845703 C 24.142943 16.160752 24.076791 18.565225 25.023438 18.513672 C 25.837049 18.469451 25.85423 16.83601 26.001953 14.953125 L 30.050781 14.248047 L 30.121094 15.060547 L 26.798828 15.517578 L 26.798828 15.914062 L 30.050781 15.851562 L 30.078125 16.556641 L 26.736328 16.583984 C 26.615232 18.168249 26.200871 19.396777 24.996094 19.410156 C 24.153221 19.417715 23.530914 18.617866 23.339844 16.474609 L 19.833984 16.449219 L 19.914062 15.660156 L 23.339844 15.796875 L 23.365234 15.443359 L 19.779297 15.007812 L 19.914062 14.166016 z M 18.570312 31.902344 C 18.409774 32.862957 18.300205 33.872598 18.271484 34.964844 C 17.962886 36.771231 18.606803 38.576463 19.078125 40.382812 C 19.798811 38.958082 20.164174 35.379938 21.257812 35.371094 L 22.742188 35.345703 C 20.862432 34.318332 19.005213 32.373021 18.570312 31.902344 z M 31.460938 32.019531 C 31.44773 32.03246 29.28645 34.130867 27.105469 35.269531 L 28.859375 35.238281 C 29.822517 35.18499 30.230113 38.884192 30.931641 40.382812 C 31.402944 38.576463 32.046872 36.771231 31.738281 34.964844 C 31.710751 33.917773 31.610387 32.944669 31.460938 32.019531 z M 15.298828 33.099609 C 14.107975 33.068396 12.935086 33.245568 11.794922 33.457031 C 11.464866 37.511905 11.429637 41.21989 12.216797 44.048828 C 11.262251 45.039064 10.380056 46.033746 11.496094 47.171875 C 20.244733 48.019132 29.206505 48.155117 38.408203 47.492188 C 39.773263 46.210662 38.566921 44.92996 37.767578 43.648438 C 38.669778 42.361835 38.698906 38.518626 38.410156 34.09375 C 36.579451 33.755716 34.565476 33.508926 32.628906 34.064453 C 32.639015 34.159457 32.653213 34.254607 32.662109 34.349609 C 32.949694 36.338888 32.89917 38.611688 32.162109 41.113281 C 32.714994 42.425193 33.620548 42.765545 34.775391 43.074219 L 35.160156 43.457031 L 35.197266 44.341797 C 35.015999 44.283592 34.83138 44.234366 34.644531 44.1875 L 34.644531 44.195312 L 15.416016 44.179688 L 15.417969 44.171875 C 15.213836 44.222521 15.010264 44.276726 14.8125 44.339844 L 14.849609 43.455078 L 15.234375 43.070312 C 16.389217 42.761525 17.294772 42.42324 17.847656 41.111328 C 17.110611 38.609734 17.06204 36.334982 17.349609 34.345703 C 17.378607 34.036053 17.417677 33.727618 17.458984 33.417969 C 16.733813 33.212693 16.01334 33.118338 15.298828 33.099609 z M 24.271484 36.15625 C 23.230097 36.171132 22.494141 36.210938 22.494141 36.210938 C 20.509566 36.280859 20.34604 41.511684 18.15625 42.996094 C 17.913944 43.252346 17.636525 43.440489 17.339844 43.587891 L 31.972656 43.505859 C 30.562095 42.780543 29.431202 36.386018 27.886719 36.255859 C 26.660577 36.152489 25.312871 36.141368 24.271484 36.15625 z M 32.425781 43.449219 C 32.426807 43.467397 32.431742 43.487961 32.429688 43.501953 L 32.507812 43.501953 C 32.479733 43.486048 32.453433 43.466003 32.425781 43.449219 z "
       transform="matrix(0.26458333,0,0,0.26458333,0,283.77082)"
       id="path1610" />
  </g>
</svg>
